X: 1
T: Canzonetta a tre voci
C: Claudio Monteverdi (1567-1643)
M: C
L: 1/4
Q: "Andante mosso" 1/4 = 110
%%score [1 2 3]
V: 1 clef=treble name="Soprano"sname="A"
V: 2 clef=treble name="Alto"   sname="T"
V: 3 clef=bass middle=d name="Tenor"  sname="B"
%%MIDI program 1 75 % recorder
%%MIDI program 2 75
%%MIDI program 3 75
K: Eb
% 1 - 4
[V: 1] |:z4  |z4  |f2ec         |_ddcc        |
w: Son que-sti~i cre-spi cri-ni~e
w: Que-sti son gli~oc-chi che mi-
[V: 2] |:c2BG|AAGc|(F/G/A/B/)c=A|B2AA         |
w: Son que-sti~i cre-spi cri-ni~e que - - - - sto~il vi-so e
w: Que-sti son~gli oc-chi che mi-ran - - - - do fi-so mi-
[V: 3] |:z4  |f2ec|_ddcf        |(B/c/_d/e/)ff|
w: Son que-sti~i cre-spi cri-ni~e que - - - - sto~il
w: Que-sti son~gli oc-chi che mi-ran - - - - do
% 5 - 9
[V: 1] cAB2     |cAAA |c3B|G2!fermata!Gz ::e4|
w: que-sto~il vi-so ond' io ri-man-go~uc-ci-so. Deh,
w: ran-do fi-so, tut-to re-stai con-qui-so.
[V: 2] AAG2     |AFFF |A3F|=E2!fermata!Ez::c4|
w: que-sto~il vi-so ond' io ri-man-go~uc-ci-so. Deh,
w: ran-do fi-so tut-to re-stai con-qui-so.
[V: 3] (ag/f/e2)|A_ddd|A3B|c2!fermata!cz ::A4|
w: vi - - - so ond' io ti-man-go~uc-ci-so. Deh,
w: fi - - - so tut-to re-stai con-qui-so.
% 10 - 15
[V: 1] f_dec |B2c2|zAGF  |\
w: dim-me-lo ben mi-o, che que-sto\
=EFG2          |1F2z2:|2F8|] % more notes
w: sol de-si-o_. % more lyrics
[V: 2] ABGA  |G2AA|GF=EF |(GF3/2=E//D//E)|1F2z2:|2F8|]
w: dim-me-lo ben mi-o, che que-sto sol de-si - - - - o_.
[V: 3] _dBc>d|e2AF|=EFc_d|c4             |1F2z2:|2F8|]
w: dim-me-lo ben mi-o, che que-sto sol de-si-o_.